X:429
T:B429-  Sing, Sing Whilst We Trip It
Q:1/4=120
L:1/8
M:6/8
K:C
c2zg3/2a/2g|e/c3/2f d/B3/2e|c/A3/2f d2c2|(B3B2)||d|\
(gf)e (fe)d|(e/f/g)(f/e/)^c2e|(fd)d (ed)c|(B/c/d)(d/B/)^G2e|\
e/A3/2f f/B3/2e|(e/d/c)d d/^G3/2e|(f/e/d)(B/c/)c2(B/A/)|\
(A3A2)a|e/g3/2g c/e3/2e|A/d3/2d G/c3/2e|(f/e/d)c (B/c/d)e|\
(c3c2)e|e/g3/2g c/e3/2e|A/d3/2d G/c3/2e|(f/e/d)c (B/c/d)e|\
(c3c2)|]
